packages/kaspersky-hexa-ui-icons/src/iconsSVGs/64x42/FlagMe.svg

<svg xmlns="http://www.w3.org/2000/svg" width="64" height="42" fill="none" viewBox="0 0 64 42"><g clip-path="url(#a)"><rect width="64" height="42" fill="#fff" rx="5"/><path fill="#e6be53" d="M0 0h64v42H0z"/><path fill="#e01826" fill-rule="evenodd" d="M3.0294 37.1001c0 1.1597.9402 2.1 2.1 2.1h53.7412c1.1598 0 2.1-.9403 2.1-2.1001V4.9c0-1.1598-.9402-2.1-2.1-2.1H5.1294c-1.1598 0-2.1.9403-2.1 2.1z" clip-rule="evenodd"/><path fill="#e6be53" fill-rule="evenodd" d="M29.9491 7.6836c-.9874.3291-1.2832 1.5822-.5473 2.3181l.7882.7882c.2625.2626.6186.4101.9899.4101h1.6402c.3714 0 .7274-.1475.99-.4101l.7882-.7882c.7359-.7359.4401-1.989-.5473-2.318l-1.6082-.5362a1.4 1.4 0 0 0-.8855 0zm3.0407 6.7263c-.5467.5468-1.4331.5468-1.9799 0l-.41-.41-2.0865-2.0865a1.4 1.4 0 0 0-1.6161-.2623l-.1601.0801c-.8547.4274-1.0395 1.5665-.3638 2.2422l.0265.0265 2.0865 2.0865a1.4 1.4 0 0 1 .2622 1.616l-.869 1.738a.756.756 0 0 0-.0797.3377c0 .5613-.5907.9264-1.0928.6754l-.6781-.3391c-.5063-.2531-.6158-.9279-.2155-1.3281a.8294.8294 0 0 0 0-1.1728l-.653-.653a1.4 1.4 0 0 1-.2622-.3638l-1.2297-2.4594a1.4 1.4 0 0 1-.106-.2865l-.6493-2.5974c-.286-1.1436-1.7709-1.4435-2.4782-.5004l-2.1552 2.8735a1.4 1.4 0 0 0-.28.84v4.8029c0 .2173.0506.4317.1478.6261l1.1506 2.3012c.0673.1346.1558.2574.2622.3638l2.4787 2.4787c.1064.1064.2293.195.3639.2623l2.4646 1.2323a.63.63 0 0 0 .28.0661c.6607 0 .8709.8906.28 1.1861l-.3245.1622a.71.71 0 0 0-.185.1333l-.6183.6184c-.3866.3866-1.0134.3866-1.4 0s-1.0134-.3866-1.4 0l-.1136.1136a1.1505 1.1505 0 0 0-.2155 1.3281l.6421 1.2844a1.4 1.4 0 0 0 1.2522.7739h1.6043c.2173 0 .4317-.0506.6261-.1478l2.087-1.0435a1.4 1.4 0 0 0 .6261-.6261l.6347-1.2695c.2738-.5476 1.0037-.666 1.4366-.2331a.897.897 0 0 1 .1121 1.1318l-1.6155 2.4233c-.4289.6433-.2551 1.5126.3882 1.9414l2.2586 1.5057a1.4 1.4 0 0 0 1.5532.0001l2.2585-1.5058c.6433-.4288.8172-1.2981.3883-1.9414l-1.6155-2.4233a.897.897 0 0 1 .1121-1.1318c.4329-.4329 1.1627-.3145 1.4365.2331l.6348 1.2695c.1354.2709.3551.4906.6261.6261l2.087 1.0435c.1944.0972.4087.1478.6261.1478h1.6042a1.4 1.4 0 0 0 1.2522-.7739l.6422-1.2844a1.1505 1.1505 0 0 0-.2155-1.3281l-.1136-.1136c-.3866-.3866-1.0134-.3866-1.4 0s-1.0134.3866-1.4 0l-.6184-.6184a.71.71 0 0 0-.1849-.1333l-.3245-.1622c-.5909-.2955-.3807-1.1861.28-1.1861a.63.63 0 0 0 .28-.0661l2.4646-1.2323a1.4 1.4 0 0 0 .3638-.2623l2.4787-2.4787a1.4 1.4 0 0 0 .2623-.3638l1.1506-2.3012a1.4 1.4 0 0 0 .1478-.6261v-4.8029c0-.3029-.0983-.5976-.28-.84l-2.1552-2.8735c-.7073-.9431-2.1923-.6432-2.4782.5004l-.6493 2.5974a1.4 1.4 0 0 1-.106.2865l-1.2297 2.4594a1.4 1.4 0 0 1-.2623.3638l-.6529.653a.829.829 0 0 0 0 1.1728c.4002.4002.2907 1.075-.2155 1.3281l-.6782.3391c-.502.251-1.0927-.1141-1.0927-.6754a.756.756 0 0 0-.0797-.3377l-.8691-1.738a1.4 1.4 0 0 1 .2623-1.616l2.0865-2.0865.0265-.0266c.6757-.6756.4908-1.8147-.3639-2.2421l-.1601-.0801a1.4 1.4 0 0 0-1.616.2623l-2.0865 2.0865z" clip-rule="evenodd"/><circle cx="32" cy="23" r="3" fill="#215f90"/></g><defs><clipPath id="a"><rect width="64" height="42" fill="#fff" rx="5"/></clipPath></defs></svg>

<svg width="64" height="42" viewBox="0 0 64 42" fill="none" xmlns="http://www.w3.org/2000/svg">
<g clip-path="url(#clip0_37941_2307)">
<rect width="64" height="42" rx="5" fill="white"/>
<rect width="64" height="42" fill="#E6BE53"/>
<path fill-rule="evenodd" clip-rule="evenodd" d="M3.02942 37.1001C3.02942 38.2598 3.96962 39.2001 5.12942 39.2001H58.8706C60.0304 39.2001 60.9706 38.2598 60.9706 37.1V4.90005C60.9706 3.74025 60.0304 2.80005 58.8706 2.80005H5.12942C3.96962 2.80005 3.02942 3.74025 3.02942 4.90005V37.1001Z" fill="#E01826"/>
<path fill-rule="evenodd" clip-rule="evenodd" d="M29.9491 7.68362C28.9617 8.01273 28.6659 9.26581 29.4018 10.0017L30.19 10.7899C30.4525 11.0525 30.8086 11.2 31.1799 11.2H32.8201C33.1915 11.2 33.5475 11.0525 33.8101 10.7899L34.5983 10.0017C35.3342 9.26582 35.0384 8.01273 34.051 7.68362L32.4428 7.14753C32.1554 7.05174 31.8447 7.05174 31.5573 7.14753L29.9491 7.68362ZM32.9898 14.4099C32.4431 14.9567 31.5567 14.9567 31.0099 14.4099L30.5999 13.9999L28.5134 11.9134C28.0873 11.4873 27.4363 11.3816 26.8973 11.6511L26.7372 11.7312C25.8825 12.1586 25.6977 13.2977 26.3734 13.9734L26.3999 13.9999L28.4864 16.0864C28.9125 16.5125 29.0181 17.1634 28.7486 17.7024L27.8796 19.4404C27.8272 19.5453 27.7999 19.6609 27.7999 19.7781C27.7999 20.3394 27.2092 20.7045 26.7071 20.4535L26.029 20.1144C25.5227 19.8613 25.4132 19.1865 25.8135 18.7863C26.1373 18.4624 26.1373 17.9373 25.8135 17.6135L25.1605 16.9605C25.0541 16.8541 24.9656 16.7313 24.8983 16.5967L23.6686 14.1373C23.6229 14.046 23.5874 13.9499 23.5626 13.8508L22.9133 11.2534C22.6273 10.1098 21.1424 9.80988 20.4351 10.753L18.2799 13.6265C18.0981 13.8689 17.9999 14.1636 17.9999 14.4665V19.2694C17.9999 19.4867 18.0505 19.7011 18.1477 19.8955L19.2983 22.1967C19.3656 22.3313 19.4541 22.4541 19.5605 22.5605L22.0392 25.0392C22.1456 25.1456 22.2685 25.2342 22.4031 25.3015L24.8677 26.5338C24.9546 26.5772 25.0505 26.5999 25.1477 26.5999C25.8084 26.5999 26.0186 27.4905 25.4277 27.786L25.1032 27.9482C25.0348 27.9824 24.9723 28.0274 24.9182 28.0815L24.2999 28.6999C23.9133 29.0865 23.2865 29.0865 22.8999 28.6999C22.5133 28.3133 21.8865 28.3133 21.4999 28.6999L21.3863 28.8135C21.0361 29.1637 20.9493 29.6987 21.1708 30.1416L21.8129 31.426C22.0501 31.9003 22.5348 32.1999 23.0651 32.1999H24.6694C24.8867 32.1999 25.1011 32.1493 25.2955 32.0521L27.3825 31.0086C27.6534 30.8731 27.8731 30.6534 28.0086 30.3825L28.6433 29.113C28.9171 28.5654 29.647 28.447 30.0799 28.8799C30.3822 29.1822 30.4292 29.656 30.192 30.0117L28.5765 32.435C28.1476 33.0783 28.3214 33.9476 28.9647 34.3764L31.2233 35.8821C31.6936 36.1957 32.3062 36.1957 32.7765 35.8822L35.035 34.3764C35.6783 33.9476 35.8522 33.0783 35.4233 32.435L33.8078 30.0117C33.5706 29.656 33.6175 29.1822 33.9199 28.8799C34.3528 28.447 35.0826 28.5654 35.3564 29.113L35.9912 30.3825C36.1266 30.6534 36.3463 30.8731 36.6173 31.0086L38.7043 32.0521C38.8987 32.1493 39.113 32.1999 39.3304 32.1999H40.9346C41.4649 32.1999 41.9497 31.9003 42.1868 31.426L42.829 30.1416C43.0505 29.6987 42.9637 29.1637 42.6135 28.8135L42.4999 28.6999C42.1133 28.3133 41.4865 28.3133 41.0999 28.6999C40.7133 29.0865 40.0865 29.0865 39.6999 28.6999L39.0815 28.0815C39.0275 28.0274 38.965 27.9824 38.8966 27.9482L38.5721 27.786C37.9812 27.4905 38.1914 26.5999 38.8521 26.5999C38.9493 26.5999 39.0451 26.5772 39.1321 26.5338L41.5967 25.3015C41.7313 25.2342 41.8541 25.1456 41.9605 25.0392L44.4392 22.5605C44.5456 22.4541 44.6342 22.3313 44.7015 22.1967L45.8521 19.8955C45.9493 19.7011 45.9999 19.4867 45.9999 19.2694V14.4665C45.9999 14.1636 45.9016 13.8689 45.7199 13.6265L43.5647 10.753C42.8574 9.80988 41.3724 10.1098 41.0865 11.2534L40.4372 13.8508C40.4124 13.9499 40.3768 14.046 40.3312 14.1373L39.1015 16.5967C39.0342 16.7313 38.9456 16.8541 38.8392 16.9605L38.1863 17.6135C37.8624 17.9373 37.8624 18.4624 38.1863 18.7863C38.5865 19.1865 38.477 19.8613 37.9708 20.1144L37.2926 20.4535C36.7906 20.7045 36.1999 20.3394 36.1999 19.7781C36.1999 19.6609 36.1726 19.5453 36.1202 19.4404L35.2511 17.7024C34.9817 17.1634 35.0873 16.5125 35.5134 16.0864L37.5999 13.9999L37.6264 13.9733C38.3021 13.2977 38.1172 12.1586 37.2625 11.7312L37.1024 11.6511C36.5634 11.3816 35.9125 11.4873 35.4864 11.9134L33.3999 13.9999L32.9898 14.4099Z" fill="#E6BE53"/>
<ellipse cx="32.0002" cy="22.7083" rx="2.8" ry="3.10822" fill="#215F90"/>
</g>
<defs>
<clipPath id="clip0_37941_2307">
<rect width="64" height="42" rx="5" fill="white"/>
</clipPath>
</defs>
</svg>
